Origami/24x24/apps/protonmail-desktop.svg

<svg width="24" height="24" version="1" xmlns="http://www.w3.org/2000/svg">
 <path d="M 22,12 A 10,10 0 0 1 12,22 10,10 0 0 1 2,12 10,10 0 0 1 12,2 10,10 0 0 1 22,12 Z" style="fill:#4f4f4f"/>
 <path d="m12 2a10 10 0 0 0 -10 10 10 10 0 0 0 0.01075 0.291 10 10 0 0 1 9.989 -9.791 10 10 0 0 1 9.989 9.709 10 10 0 0 0 0.011 -0.209 10 10 0 0 0 -10 -10z" style="fill:#ffffff;opacity:.1"/>
 <path d="M 21.9895,12.209 A 10,10 0 0 1 12,22 10,10 0 0 1 2.011,12.291 10,10 0 0 0 2,12.5 a 10,10 0 0 0 10,10 10,10 0 0 0 10,-10 10,10 0 0 0 -0.0105,-0.291 z" style="opacity:.2"/>
 <path d="m12 6.5002895c-0.250932 0-0.502311 0.012927-0.662109 0.039063-1.9288025 0.31535-3.0686481 1.3831926-3.2968754 3.087891-0.025213 0.188347-0.03306 0.5213795-0.037109 1.8027355l-0.0039066 0.52307 0.056641 0.09961c0.1381439 0.250723 0.3282103 0.427355 1.2363282 1.142578 1.5182258 1.195741 2.1430228 1.632732 2.5273428 1.765626 0.06066 0.02097 0.143836 0.03845 0.185547 0.03906 0.255066 0.0039 0.999731-0.471735 2.128907-1.357422 1.408162-1.104521 1.66941-1.333603 1.80664-1.583984l0.058594-0.105468v-0.255492c0-1.637283-0.01068-1.9284115-0.07813-2.2792985-0.1203-0.6257513-0.338544-1.120169-0.6875-1.5507815-0.560106-0.691176-1.435508-1.1422715-2.572261-1.328125-0.159803-0.026125-0.411178-0.0390625-0.662109-0.0390625zm0 2c0.907453 0 1.695395 0.707714 1.953125 1.5742205 0.04538 0.152555 0.046875 0.158769 0.046875 0.779297 0 0.344054-0.0052 0.631734-0.01172 0.638672-0.0066 0.0069-0.897374 0.01046-1.988281 0.0078-1.090907 0.0026-1.981748-9.13e-4 -1.988281-0.0078-0.006499-0.0069-0.011718-0.294618-0.011718-0.638672 0-0.620528 0.0015-0.626742 0.04687-0.779297 0.257733-0.8665065 1.045677-1.5742205 1.95313-1.5742205zm-3.9980469 4.4996345s-0.00511 0.439257 0 2.080078l0.00781 2.015625 0.060547 0.126953c0.046208 0.09667 0.083027 0.141666 0.1582031 0.191406l0.097656 0.06445 1.59375 0.01172c0.8765258 0.0059 2.5175048 0.01034 3.6464838 0.0098l2.052735-2e-3 0.09961-0.04687c0.12755-0.06164 0.165482-0.09985 0.224609-0.22461l0.04687-0.101562 2e-3 -1.837891 0.0078-2.287099h-0.02539l-0.0332 0.06055c-0.137231 0.250381-0.398478 0.479464-1.80664 1.583984-1.129174 0.885688-1.873843 1.359369-2.128907 1.355469-0.04171-6e-4 -0.124893-0.01808-0.185547-0.03906-0.384295-0.132924-1.009148-0.569889-2.5273742-1.765631-0.9081178-0.715222-1.0981843-0.891855-1.2363282-1.142578l-0.03125-0.05273z" style="opacity:.2"/>
 <path d="m12 6.0003665c-0.250932 0-0.502311 0.012927-0.662109 0.039063-1.9288025 0.31535-3.0686481 1.3831926-3.2968754 3.0878905-0.025213 0.188347-0.03306 0.521379-0.037109 1.802735l-0.0039066 0.52307 0.056641 0.09961c0.1381439 0.250723 0.3282103 0.427355 1.2363282 1.142578 1.5182258 1.195741 2.1430228 1.632732 2.5273428 1.765626 0.06066 0.02097 0.143836 0.03845 0.185547 0.03906 0.255066 0.0039 0.999731-0.471735 2.128907-1.357422 1.408162-1.104521 1.66941-1.333603 1.80664-1.583984l0.058594-0.105468v-0.255492c0-1.6372835-0.010675-1.9284115-0.078125-2.2792977-0.1203-0.6257511-0.338544-1.1201688-0.6875-1.5507813-0.560111-0.691176-1.435513-1.1422715-2.572266-1.328125-0.159803-0.026125-0.411178-0.0390625-0.662109-0.0390625zm0 2c0.907453 0 1.695395 0.7077139 1.953125 1.574219 0.04538 0.152555 0.046875 0.158769 0.046875 0.7792975 0 0.344054-0.0052 0.631734-0.01172 0.638672-0.0066 0.0069-0.897374 0.01046-1.988281 0.0078-1.090907 0.0026-1.981748-9.13e-4 -1.988281-0.0078-0.006499-0.0069-0.011718-0.294618-0.011718-0.638672 0-0.6205285 0.0015-0.6267425 0.04687-0.7792975 0.257733-0.8665052 1.045677-1.574219 1.95313-1.574219zm-3.9980469 4.4996335s-0.00511 0.439257 0 2.080078l0.00781 2.015625 0.060547 0.126953c0.046208 0.09667 0.083027 0.141666 0.1582031 0.191406l0.097656 0.06445 1.59375 0.01172c0.8765258 0.0059 2.5175048 0.01034 3.6464838 0.0098l2.052735-2e-3 0.09961-0.04687c0.12755-0.06164 0.165482-0.09985 0.224609-0.22461l0.04687-0.101562 2e-3 -1.837891 0.007773-2.287099h-0.02539l-0.0332 0.06055c-0.137231 0.250381-0.398478 0.479464-1.80664 1.583984-1.129174 0.885688-1.873843 1.359369-2.128907 1.355469-0.04171-6e-4 -0.124893-0.01808-0.185547-0.03906-0.384268-0.132924-1.009121-0.569889-2.5273472-1.765631-0.9081178-0.715222-1.0981843-0.891855-1.2363282-1.142578l-0.03125-0.052734z" style="fill:#ffffff"/>
</svg>

<svg xmlns="http://www.w3.org/2000/svg" width="24" height="24" version="1">
 <path style="fill:#4f4f4f" d="M 22,12 A 10,10 0 0 1 12,22 10,10 0 0 1 2,12 10,10 0 0 1 12,2 10,10 0 0 1 22,12 Z"/>
 <path style="opacity:0.1;fill:#ffffff" d="m 12,2 a 10,10 0 0 0 -10,10 10,10 0 0 0 0.01075,0.291 10,10 0 0 1 9.989,-9.791 10,10 0 0 1 9.989,9.709 10,10 0 0 0 0.011,-0.209 10,10 0 0 0 -10,-10 z"/>
 <path style="opacity:0.2" d="M 21.9895,12.209 A 10,10 0 0 1 12,22 10,10 0 0 1 2.011,12.291 10,10 0 0 0 2,12.5 a 10,10 0 0 0 10,10 10,10 0 0 0 10,-10 10,10 0 0 0 -0.0105,-0.291 z"/>
 <path d="m 12,6.5002895 c -0.250932,0 -0.502311,0.012927 -0.662109,0.039063 -1.9288025,0.31535 -3.0686481,1.3831926 -3.2968754,3.087891 -0.025213,0.188347 -0.03306,0.5213795 -0.037109,1.8027355 L 8,11.953049 l 0.056641,0.09961 c 0.1381439,0.250723 0.3282103,0.427355 1.2363282,1.142578 1.5182258,1.195741 2.1430228,1.632732 2.5273428,1.765626 0.06066,0.02097 0.143836,0.03845 0.185547,0.03906 0.255066,0.0039 0.999731,-0.471735 2.128907,-1.357422 1.408162,-1.104521 1.66941,-1.333603 1.80664,-1.583984 L 16,11.953049 16,11.697557 C 16,10.060274 15.98932,9.7691455 15.92187,9.4182585 15.80157,8.7925072 15.583326,8.2980895 15.23437,7.867477 14.674264,7.176301 13.798862,6.7252055 12.662109,6.539352 12.502306,6.513227 12.250931,6.5002895 12,6.5002895 Z m 0,2 c 0.907453,0 1.695395,0.707714 1.953125,1.5742205 C 13.998505,10.227065 14,10.233279 14,10.853807 c 0,0.344054 -0.0052,0.631734 -0.01172,0.638672 -0.0066,0.0069 -0.897374,0.01046 -1.988281,0.0078 -1.090907,0.0026 -1.981748,-9.13e-4 -1.988281,-0.0078 C 10.005219,11.485579 10,11.197861 10,10.853807 10,10.233279 10.0015,10.227065 10.04687,10.07451 10.304603,9.2080035 11.092547,8.5002895 12,8.5002895 Z M 8.0019531,12.999924 c 0,0 -0.00511,0.439257 0,2.080078 l 0.00781,2.015625 0.060547,0.126953 c 0.046208,0.09667 0.083027,0.141666 0.1582031,0.191406 l 0.097656,0.06445 1.59375,0.01172 c 0.8765258,0.0059 2.5175048,0.01034 3.6464838,0.0098 l 2.052735,-0.002 0.09961,-0.04687 c 0.12755,-0.06164 0.165482,-0.09985 0.224609,-0.22461 l 0.04687,-0.101562 0.002,-1.837891 0.0078,-2.287099 -0.02539,0 -0.0332,0.06055 c -0.137231,0.250381 -0.398478,0.479464 -1.80664,1.583984 -1.129174,0.885688 -1.873843,1.359369 -2.128907,1.355469 -0.04171,-6e-4 -0.124893,-0.01808 -0.185547,-0.03906 C 11.436048,15.827943 10.811195,15.390978 9.2929688,14.195236 8.384851,13.480014 8.1947845,13.303381 8.0566406,13.052658 l -0.03125,-0.05273 z" style="opacity:0.2"/>
 <path style="fill:#ffffff" d="m 12,6.0003665 c -0.250932,0 -0.502311,0.012927 -0.662109,0.039063 -1.9288025,0.31535 -3.0686481,1.3831926 -3.2968754,3.0878905 -0.025213,0.188347 -0.03306,0.521379 -0.037109,1.802735 L 8,11.453125 l 0.056641,0.09961 c 0.1381439,0.250723 0.3282103,0.427355 1.2363282,1.142578 1.5182258,1.195741 2.1430228,1.632732 2.5273428,1.765626 0.06066,0.02097 0.143836,0.03845 0.185547,0.03906 0.255066,0.0039 0.999731,-0.471735 2.128907,-1.357422 1.408162,-1.104521 1.66941,-1.333603 1.80664,-1.583984 L 16,11.453125 16,11.197633 C 16,9.5603495 15.989325,9.2692215 15.921875,8.9183353 15.801575,8.2925842 15.583331,7.7981665 15.234375,7.367554 14.674264,6.676378 13.798862,6.2252825 12.662109,6.039429 12.502306,6.013304 12.250931,6.0003665 12,6.0003665 Z m 0,2 c 0.907453,0 1.695395,0.7077139 1.953125,1.574219 C 13.998505,9.7271405 14,9.7333545 14,10.353883 c 0,0.344054 -0.0052,0.631734 -0.01172,0.638672 -0.0066,0.0069 -0.897374,0.01046 -1.988281,0.0078 -1.090907,0.0026 -1.981748,-9.13e-4 -1.988281,-0.0078 C 10.005219,10.985655 10,10.697937 10,10.353883 10,9.7333545 10.0015,9.7271405 10.04687,9.5745855 10.304603,8.7080803 11.092547,8.0003665 12,8.0003665 Z M 8.0019531,12.5 c 0,0 -0.00511,0.439257 0,2.080078 l 0.00781,2.015625 0.060547,0.126953 c 0.046208,0.09667 0.083027,0.141666 0.1582031,0.191406 l 0.097656,0.06445 1.59375,0.01172 c 0.8765258,0.0059 2.5175048,0.01034 3.6464838,0.0098 l 2.052735,-0.002 0.09961,-0.04687 c 0.12755,-0.06164 0.165482,-0.09985 0.224609,-0.22461 l 0.04687,-0.101562 0.002,-1.837891 L 16,12.5 l -0.02539,0 -0.0332,0.06055 c -0.137231,0.250381 -0.398478,0.479464 -1.80664,1.583984 -1.129174,0.885688 -1.873843,1.359369 -2.128907,1.355469 -0.04171,-6e-4 -0.124893,-0.01808 -0.185547,-0.03906 C 11.436048,15.328019 10.811195,14.891054 9.2929688,13.695312 8.384851,12.98009 8.1947845,12.803457 8.0566406,12.552734 L 8.0253906,12.5 Z"/>
</svg>
